src/pages/screens/Tenets/images/TopSecure.svg

<svg width="50" height="50" viewBox="0 0 50 50" fill="none" xmlns="http://www.w3.org/2000/svg">
<path d="M8.33325 22.75C8.33325 20.8644 8.33325 19.9216 8.91904 19.3358C9.50482 18.75 10.4476 18.75 12.3333 18.75H37.6666C39.5522 18.75 40.495 18.75 41.0808 19.3358C41.6666 19.9216 41.6666 20.8644 41.6666 22.75V37.75C41.6666 40.5784 41.6666 41.9926 40.7879 42.8713C39.9092 43.75 38.495 43.75 35.6666 43.75H14.3333C11.5048 43.75 10.0906 43.75 9.21193 42.8713C8.33325 41.9926 8.33325 40.5784 8.33325 37.75V22.75Z" stroke="white" stroke-width="2"/>
<path d="M33.3332 16.6667V14.5833C33.3332 11.4679 33.3332 9.91025 32.6633 8.75C32.2245 7.9899 31.5933 7.35871 30.8332 6.91987C29.6729 6.25 28.1152 6.25 24.9998 6.25V6.25C21.8845 6.25 20.3268 6.25 19.1665 6.91987C18.4064 7.35871 17.7752 7.9899 17.3364 8.75C16.6665 9.91025 16.6665 11.4679 16.6665 14.5833V16.6667" stroke="white" stroke-width="2" stroke-linecap="round"/>
<ellipse cx="24.9999" cy="31.25" rx="4.16667" ry="4.16667" fill="white"/>
</svg>

<svg width="50" height="50" fill="none" xmlns="http://www.w3.org/2000/svg"><path d="M8.333 22.75c0-1.886 0-2.828.586-3.414.586-.586 1.529-.586 3.414-.586h25.334c1.885 0 2.828 0 3.414.586.586.586.586 1.528.586 3.414v15c0 2.828 0 4.243-.88 5.121-.878.879-2.292.879-5.12.879H14.333c-2.828 0-4.242 0-5.121-.879-.879-.878-.879-2.293-.879-5.121v-15z" stroke="#fff" stroke-width="2"/><path d="M33.333 16.667v-2.084c0-3.115 0-4.673-.67-5.833a5 5 0 0 0-1.83-1.83c-1.16-.67-2.718-.67-5.833-.67v0c-3.116 0-4.673 0-5.834.67a5 5 0 0 0-1.83 1.83c-.67 1.16-.67 2.718-.67 5.833v2.084" stroke="#fff" stroke-width="2" stroke-linecap="round"/><circle cx="25" cy="31.25" fill="#fff" r="4.167"/></svg>
